StripePaymentSheet/StripePaymentSheet/Resources/StripePaymentSheet.xcassets/PaymentSheet/icon_chevron_left_standalone.imageset/chevronLeft.svg

<svg fill="none" height="16" viewBox="0 0 16 16" width="16" xmlns="http://www.w3.org/2000/svg"><path clip-rule="evenodd" d="m11.0081 2.40888-5.59127 5.59132 5.59127 5.5913c.3909.3909.3909 1.0246 0 1.4155-.3908.3909-1.02459.3909-1.41548 0l-6.29973-6.2997c-.39052-.39052-.39052-1.02369 0-1.41421l6.29973-6.29973c.39089-.390886 1.02468-.390886 1.41548 0 .3909.39089.3909 1.02464 0 1.41552z" fill="#000" fill-rule="evenodd"/></svg>

<svg width="16" height="16" viewBox="0 0 16 16" fill="none" xmlns="http://www.w3.org/2000/svg">
<path fill-rule="evenodd" clip-rule="evenodd" d="M11.0081 2.40888L5.41683 8.0002L11.0081 13.5915C11.399 13.9824 11.399 14.6161 11.0081 15.007C10.6173 15.3979 9.98351 15.3979 9.59262 15.007L3.29289 8.7073C2.90237 8.31678 2.90237 7.68361 3.29289 7.29309L9.59262 0.99336C9.98351 0.602474 10.6173 0.602474 11.0081 0.99336C11.399 1.38425 11.399 2.018 11.0081 2.40888Z" fill="black"/>
</svg>
